Numix/64x64/categories/applications-java.svg

<?xml version="1.0" encoding="UTF-8" standalone="no"?>
<svg
   xmlns:dc="http://purl.org/dc/elements/1.1/"
   xmlns:cc="http://creativecommons.org/ns#"
   xmlns:rdf="http://www.w3.org/1999/02/22-rdf-syntax-ns#"
   xmlns:svg="http://www.w3.org/2000/svg"
   xmlns="http://www.w3.org/2000/svg"
   xmlns:sodipodi="http://sodipodi.sourceforge.net/DTD/sodipodi-0.dtd"
   xmlns:inkscape="http://www.inkscape.org/namespaces/inkscape"
   width="64"
   height="64"
   viewBox="0 0 64 64"
   id="svg2"
   version="1.1"
   inkscape:version="0.91 r"
   sodipodi:docname="applications-java.svg">
  <metadata
     id="metadata26">
    <rdf:RDF>
      <cc:Work
         rdf:about="">
        <dc:format>image/svg+xml</dc:format>
        <dc:type
           rdf:resource="http://purl.org/dc/dcmitype/StillImage" />
      </cc:Work>
    </rdf:RDF>
  </metadata>
  <defs
     id="defs24" />
  <sodipodi:namedview
     pagecolor="#ffffff"
     bordercolor="#666666"
     borderopacity="1"
     objecttolerance="10"
     gridtolerance="10"
     guidetolerance="10"
     inkscape:pageopacity="0"
     inkscape:pageshadow="2"
     inkscape:window-width="1920"
     inkscape:window-height="1056"
     id="namedview22"
     showgrid="false"
     inkscape:zoom="3.6875"
     inkscape:cx="32"
     inkscape:cy="32"
     inkscape:window-x="0"
     inkscape:window-y="24"
     inkscape:window-maximized="1"
     inkscape:current-layer="svg2" />
  <g
     style="fill:#e660c1;fill-rule:evenodd"
     id="g4"
     transform="matrix(1.0412685,0,0,1.0412685,-0.97394084,-0.97302054)">
    <path
       d="m 25.175781,45.1875 c 0,0 -1.894531,1.101562 1.339844,1.480469 3.925781,0.441406 5.925781,0.375 10.25,-0.4375 0,0 1.136719,0.710937 2.71875,1.328125 -9.6875,4.152344 -21.917969,-0.242188 -14.308594,-2.371094"
       id="path6"
       inkscape:connector-curvature="0" />
    <path
       d="m 23.992188,39.773438 c 0,0 -2.125,1.574218 1.117187,1.90625 4.1875,0.429687 7.496094,0.46875 13.21875,-0.632813 0,0 0.792969,0.800781 2.035156,1.238281 -11.710937,3.425782 -24.757812,0.273438 -16.371093,-2.511718"
       id="path8"
       inkscape:connector-curvature="0" />
    <path
       d="m 33.964844,30.585938 c 2.390625,2.746093 -0.625,5.222656 -0.625,5.222656 0,0 6.0625,-3.132813 3.273437,-7.046875 -2.597656,-3.65625 -4.589843,-5.46875 6.207031,-11.730469 0,0 -16.941406,4.230469 -8.855468,13.554688"
       id="path10"
       inkscape:connector-curvature="0" />
    <path
       d="m 46.777344,49.199219 c 0,0 1.398437,1.152343 -1.542969,2.042969 -5.585937,1.695312 -23.269531,2.207031 -28.175781,0.06641 -1.765625,-0.769532 1.542968,-1.828125 2.582031,-2.058594 1.089844,-0.234375 1.707031,-0.1875 1.707031,-0.1875 -1.960937,-1.386719 -12.6875,2.714844 -5.449218,3.886719 19.753906,3.203125 36.003906,-1.4375 30.878906,-3.75"
       id="path12"
       inkscape:connector-curvature="0" />
    <path
       d="m 26.082031,34.160156 c 0,0 -8.992187,2.136719 -3.183593,2.917969 2.453124,0.324219 7.34375,0.253906 11.894531,-0.132813 3.722656,-0.3125 7.460937,-0.980468 7.460937,-0.980468 0,0 -1.316406,0.566406 -2.265625,1.210937 -9.128906,2.402344 -26.773437,1.28125 -21.695312,-1.171875 4.296875,-2.078125 7.789062,-1.84375 7.789062,-1.84375"
       id="path14"
       inkscape:connector-curvature="0" />
    <path
       d="m 42.214844,43.175781 c 9.28125,-4.824219 4.992187,-9.457031 1.996094,-8.832031 -0.734376,0.15625 -1.058594,0.285156 -1.058594,0.285156 0,0 0.265625,-0.429687 0.785156,-0.613281 5.933594,-2.082031 10.488281,6.148437 -1.90625,9.410156 0,0 0.144531,-0.132812 0.183594,-0.25"
       id="path16"
       inkscape:connector-curvature="0" />
    <path
       d="m 36.613281,6.925781 c 0,0 5.144531,5.144531 -4.875,13.054688 -8.027343,6.339843 -1.828125,9.960937 0,14.089843 -4.6875,-4.226562 -8.132812,-7.949218 -5.820312,-11.421874 3.386719,-5.082032 12.773437,-7.550782 10.695312,-15.722657"
       id="path18"
       inkscape:connector-curvature="0" />
    <path
       d="m 26.992188,56.25 c 8.914062,0.574219 22.597656,-0.320312 22.921874,-4.53125 0,0 -0.625,1.59375 -7.367187,2.863281 C 34.941406,56.015625 25.558594,55.851562 20,54.933594 c 0,0 1.140625,0.9375 6.992188,1.316406"
       id="path20"
       inkscape:connector-curvature="0" />
  </g>
</svg>

<svg width="64" xmlns="http://www.w3.org/2000/svg" height="64" viewBox="0 0 64 64" xmlns:xlink="http://www.w3.org/1999/xlink">
<g style="fill:#e660c1;fill-rule:evenodd">
<path d="M 25.175781 45.1875 C 25.175781 45.1875 23.28125 46.289062 26.515625 46.667969 C 30.441406 47.109375 32.441406 47.042969 36.765625 46.230469 C 36.765625 46.230469 37.902344 46.941406 39.484375 47.558594 C 29.796875 51.710938 17.566406 47.316406 25.175781 45.1875 "/>
<path d="M 23.992188 39.773438 C 23.992188 39.773438 21.867188 41.347656 25.109375 41.679688 C 29.296875 42.109375 32.605469 42.148438 38.328125 41.046875 C 38.328125 41.046875 39.121094 41.847656 40.363281 42.285156 C 28.652344 45.710938 15.605469 42.558594 23.992188 39.773438 "/>
<path d="M 33.964844 30.585938 C 36.355469 33.332031 33.339844 35.808594 33.339844 35.808594 C 33.339844 35.808594 39.402344 32.675781 36.613281 28.761719 C 34.015625 25.105469 32.023438 23.292969 42.820312 17.03125 C 42.820312 17.03125 25.878906 21.261719 33.964844 30.585938 "/>
<path d="M 46.777344 49.199219 C 46.777344 49.199219 48.175781 50.351562 45.234375 51.242188 C 39.648438 52.9375 21.964844 53.449219 17.058594 51.308594 C 15.292969 50.539062 18.601562 49.480469 19.640625 49.25 C 20.730469 49.015625 21.347656 49.0625 21.347656 49.0625 C 19.386719 47.675781 8.660156 51.777344 15.898438 52.949219 C 35.652344 56.152344 51.902344 51.511719 46.777344 49.199219 "/>
<path d="M 26.082031 34.160156 C 26.082031 34.160156 17.089844 36.296875 22.898438 37.078125 C 25.351562 37.402344 30.242188 37.332031 34.792969 36.945312 C 38.515625 36.632812 42.253906 35.964844 42.253906 35.964844 C 42.253906 35.964844 40.9375 36.53125 39.988281 37.175781 C 30.859375 39.578125 13.214844 38.457031 18.292969 36.003906 C 22.589844 33.925781 26.082031 34.160156 26.082031 34.160156 "/>
<path d="M 42.214844 43.175781 C 51.496094 38.351562 47.207031 33.71875 44.210938 34.34375 C 43.476562 34.5 43.152344 34.628906 43.152344 34.628906 C 43.152344 34.628906 43.417969 34.199219 43.9375 34.015625 C 49.871094 31.933594 54.425781 40.164062 42.03125 43.425781 C 42.03125 43.425781 42.175781 43.292969 42.214844 43.175781 "/>
<path d="M 36.613281 6.925781 C 36.613281 6.925781 41.757812 12.070312 31.738281 19.980469 C 23.710938 26.320312 29.910156 29.941406 31.738281 34.070312 C 27.050781 29.84375 23.605469 26.121094 25.917969 22.648438 C 29.304688 17.566406 38.691406 15.097656 36.613281 6.925781 "/>
<path d="M 26.992188 56.25 C 35.90625 56.824219 49.589844 55.929688 49.914062 51.71875 C 49.914062 51.71875 49.289062 53.3125 42.546875 54.582031 C 34.941406 56.015625 25.558594 55.851562 20 54.933594 C 20 54.933594 21.140625 55.871094 26.992188 56.25 "/>
</g>
</svg>
